X:1
T:Title
%%score { 1 | 2 }
L:1/8
M:3/4
K:F
V:1 treble nm="Grand Piano"
V:2 bass 
V:1
 z2 z2[Q:1/4=96] [DF]>[DF] | [DB]3 [DB] [^CA]>[CG] | [DF]4 [Fd][FB] | [FA][G_e] d3 c | %4
[M:2/4] [DB]4 |[M:1/4] [DB]>[DB] |[M:3/4] [DB]3 [DG] [_AB]>[AB] | [GB]3 [FB] [Fc][Fd] | %8
 [Fc]3 [FA] [EA]>[EG] |[M:2/4] F4 |[M:1/4] [Fd]>[DB] |[M:3/4] [DF]3 [DF] [^CG][CB] | [DF]4 d>d | %13
 d3 B [Ec][Ed] |[M:2/4] [Fc]4 |[M:1/4] [Fd]>[Fd] |[M:3/4] [Fd]3 B cB | _e3 [B=e] [Be][Be] | %18
 [Bf]3 [Fd] [_Ec]>[EB][Q:1/4=95][Q:1/4=93][Q:1/4=92][Q:1/4=90][Q:1/4=89][Q:1/4=87][Q:1/4=86][Q:1/4=84][Q:1/4=83][Q:1/4=81][Q:1/4=80][Q:1/4=78][Q:1/4=77][Q:1/4=75][Q:1/4=74] | %19
[M:2/4] [DB]4 |] %20
V:2
 z2 z2 [B,,B,]>[B,,B,] | [B,,F,]3 [B,,F,] [B,,E,]>[B,,G,] | [B,,B,]4 [B,,B,][D,B,] | %3
 [F,C][F,A,] [F,B,F]3 [F,_E] |[M:2/4] [B,,F,]4 |[M:1/4] [B,,B,]>[B,,B,] | %6
[M:3/4] [G,B,]3 [G,B,] [F,D]>[F,D] | [_E,_E]3 [D,B,] [C,A,][B,,B,] | [C,A,]3 [C,C] [C,C]>[C,B,] | %9
[M:2/4] [F,A,]4 |[M:1/4] [B,,B,]>[B,,F,] |[M:3/4] [B,,B,]3 [B,,B,] [B,,E,][B,,G,] | %12
 [B,,B,]4[K:treble] [B,F]>[B,F] | [G,B,G]3[K:bass] [G,B,D] [C,B,][C,B,] |[M:2/4] [F,A,]4 | %15
[M:1/4] [B,,B,]>[B,,B,] |[M:3/4] [B,,B,]3[K:treble] [B,DF] [_A,DF][A,DF] | %17
 [G,B,_E]3 [^F,^C] [F,C][F,C] | [F,D]3 [F,B,] [F,,F,A,]>[B,,F,] |[M:2/4] [B,,F,]4 |] %20

